images/chz.svg

<svg height="250" viewBox="0 0 250 250" width="250" xmlns="http://www.w3.org/2000/svg"><g fill="#cd0124"><path d="m148.332031 130.832031c0-1.664062 0-2.5-1.664062-3.332031-5.835938-4.167969-12.5-8.332031-18.335938-12.5-1.261719-.84375-2.902343-.84375-4.164062 0l-18.335938 13.332031c-1.558593.796875-2.53125 2.414063-2.5 4.167969-.039062 1.796875-.617187 3.539062-1.664062 5-.84375 1.261719-.84375 2.90625 0 4.167969 6.664062 13.332031 12.5 26.664062 19.164062 40 2.5 4.164062 4.167969 9.164062 6.667969 14.164062.832031-.832031.832031-1.664062 1.667969-2.5 7.5-16.664062 14.164062-33.332031 21.664062-50 .835938-1.664062.835938-2.5-.832031-3.332031-1.898438-2.652344-2.507812-6.015625-1.667969-9.167969zm0 0"/><path d="m120 109.167969c-16.667969-11.667969-33.332031-23.335938-49.167969-34.167969l-.832031.832031c.832031 1.667969.832031 2.5 1.667969 4.167969l17.5 37.5c1.664062 3.332031 2.5 6.667969 7.5 7.5 1.4375.128906 2.886719-.160156 4.164062-.832031 5-4.167969 10.835938-7.5 15.835938-11.667969zm0 0"/><path d="m125 0c-69.035156 0-125 55.964844-125 125s55.964844 125 125 125 125-55.964844 125-125-55.964844-125-125-125zm67.5 72.5c-1.667969 0-2.5.832031-3.332031 2.5-6.667969 16.667969-14.167969 33.332031-20.835938 50v3.332031c1.347657 2.851563 1.386719 6.148438.105469 9.03125-1.28125 2.878907-3.753906 5.058594-6.769531 5.96875-.835938 0-1.667969.835938-2.5 2.5-7.5 16.667969-15 34.167969-21.667969 50.835938-.84375 1.261719-.84375 2.902343 0 4.164062 3.230469 4.433594 2.503906 10.605469-1.667969 14.167969-3.613281 3.570312-9.304687 3.925781-13.332031.832031-2.101562-1.433593-3.546875-3.644531-4.015625-6.148437-.46875-2.5.078125-5.085938 1.515625-7.183594.828125-1.5625.828125-3.4375 0-5-8.332031-16.667969-15.832031-33.332031-24.167969-50-.769531-1.71875-2.320312-2.960938-4.164062-3.332031-3.449219-.574219-6.394531-2.800781-7.890625-5.957031s-1.351563-6.847657.390625-9.878907c.839843-1.261719.839843-2.902343 0-4.164062-7.5-16.667969-15-32.5-23.335938-49.167969 0-.832031-.832031-1.667969-3.332031-1.667969-5.054688-.710937-8.898438-4.902343-9.167969-10 .316407-4.714843 3.195313-8.878906 7.5-10.832031 4.628907-1.792969 9.875-.042969 12.5 4.167969.835938 1.664062 1.667969 1.664062 4.167969 1.664062h105.832031c1.667969 0 3.335938 0 4.167969-2.5 2.347656-4.050781 7.28125-5.816406 11.667969-4.164062 4.222656 1.597656 7.144531 5.496093 7.5 10 .0625 5.386719-3.84375 10.003906-9.167969 10.832031zm0 0"/><path d="m125 103.332031c1.261719.84375 2.90625.84375 4.167969 0 15.832031-11.664062 31.664062-22.5 46.664062-34.164062.835938-.835938 1.667969-.835938 1.667969-1.667969v-.832031h-105c.953125.347656 1.808594.917969 2.5 1.664062zm0 0"/><path d="m133.332031 109.167969c6.667969 5 13.335938 9.164062 20 13.332031 1.667969.832031 4.167969 0 6.667969 0 .832031 0 1.667969-1.667969 1.667969-2.5 5.832031-13.332031 11.664062-27.5 17.5-40.832031 0-.835938.832031-1.667969.832031-2.5h-.832031c-14.167969 10-30 20.832031-45.835938 32.5zm0 0"/></g></svg>

<svg xmlns="http://www.w3.org/2000/svg" xmlns:xlink="http://www.w3.org/1999/xlink" width="250px" height="250px" viewBox="0 0 250 250" version="1.1">
<g id="surface1">
<path style=" stroke:none;fill-rule:nonzero;fill:rgb(80.392158%,0.392157%,14.117648%);fill-opacity:1;" d="M 148.332031 130.832031 C 148.332031 129.167969 148.332031 128.332031 146.667969 127.5 C 140.832031 123.332031 134.167969 119.167969 128.332031 115 C 127.070312 114.15625 125.429688 114.15625 124.167969 115 L 105.832031 128.332031 C 104.273438 129.128906 103.300781 130.746094 103.332031 132.5 C 103.292969 134.296875 102.714844 136.039062 101.667969 137.5 C 100.824219 138.761719 100.824219 140.40625 101.667969 141.667969 C 108.332031 155 114.167969 168.332031 120.832031 181.667969 C 123.332031 185.832031 125 190.832031 127.5 195.832031 C 128.332031 195 128.332031 194.167969 129.167969 193.332031 C 136.667969 176.667969 143.332031 160 150.832031 143.332031 C 151.667969 141.667969 151.667969 140.832031 150 140 C 148.101562 137.347656 147.492188 133.984375 148.332031 130.832031 Z M 148.332031 130.832031 "/>
<path style=" stroke:none;fill-rule:nonzero;fill:rgb(80.392158%,0.392157%,14.117648%);fill-opacity:1;" d="M 120 109.167969 C 103.332031 97.5 86.667969 85.832031 70.832031 75 L 70 75.832031 C 70.832031 77.5 70.832031 78.332031 71.667969 80 L 89.167969 117.5 C 90.832031 120.832031 91.667969 124.167969 96.667969 125 C 98.105469 125.128906 99.554688 124.839844 100.832031 124.167969 C 105.832031 120 111.667969 116.667969 116.667969 112.5 Z M 120 109.167969 "/>
<path style=" stroke:none;fill-rule:nonzero;fill:rgb(80.392158%,0.392157%,14.117648%);fill-opacity:1;" d="M 125 0 C 55.964844 0 0 55.964844 0 125 C 0 194.035156 55.964844 250 125 250 C 194.035156 250 250 194.035156 250 125 C 250 55.964844 194.035156 0 125 0 Z M 192.5 72.5 C 190.832031 72.5 190 73.332031 189.167969 75 C 182.5 91.667969 175 108.332031 168.332031 125 L 168.332031 128.332031 C 169.679688 131.183594 169.71875 134.480469 168.4375 137.363281 C 167.15625 140.242188 164.683594 142.421875 161.667969 143.332031 C 160.832031 143.332031 160 144.167969 159.167969 145.832031 C 151.667969 162.5 144.167969 180 137.5 196.667969 C 136.65625 197.929688 136.65625 199.570312 137.5 200.832031 C 140.730469 205.265625 140.003906 211.4375 135.832031 215 C 132.21875 218.570312 126.527344 218.925781 122.5 215.832031 C 120.398438 214.398438 118.953125 212.1875 118.484375 209.683594 C 118.015625 207.183594 118.5625 204.597656 120 202.5 C 120.828125 200.9375 120.828125 199.0625 120 197.5 C 111.667969 180.832031 104.167969 164.167969 95.832031 147.5 C 95.0625 145.78125 93.511719 144.539062 91.667969 144.167969 C 88.21875 143.59375 85.273438 141.367188 83.777344 138.210938 C 82.28125 135.054688 82.425781 131.363281 84.167969 128.332031 C 85.007812 127.070312 85.007812 125.429688 84.167969 124.167969 C 76.667969 107.5 69.167969 91.667969 60.832031 75 C 60.832031 74.167969 60 73.332031 57.5 73.332031 C 52.445312 72.621094 48.601562 68.429688 48.332031 63.332031 C 48.648438 58.617188 51.527344 54.453125 55.832031 52.5 C 60.460938 50.707031 65.707031 52.457031 68.332031 56.667969 C 69.167969 58.332031 70 58.332031 72.5 58.332031 L 178.332031 58.332031 C 180 58.332031 181.667969 58.332031 182.5 55.832031 C 184.847656 51.78125 189.78125 50.015625 194.167969 51.667969 C 198.390625 53.265625 201.3125 57.164062 201.667969 61.667969 C 201.730469 67.054688 197.824219 71.671875 192.5 72.5 Z M 192.5 72.5 "/>
<path style=" stroke:none;fill-rule:nonzero;fill:rgb(80.392158%,0.392157%,14.117648%);fill-opacity:1;" d="M 125 103.332031 C 126.261719 104.175781 127.90625 104.175781 129.167969 103.332031 C 145 91.667969 160.832031 80.832031 175.832031 69.167969 C 176.667969 68.332031 177.5 68.332031 177.5 67.5 L 177.5 66.667969 L 72.5 66.667969 C 73.453125 67.015625 74.308594 67.585938 75 68.332031 Z M 125 103.332031 "/>
<path style=" stroke:none;fill-rule:nonzero;fill:rgb(80.392158%,0.392157%,14.117648%);fill-opacity:1;" d="M 133.332031 109.167969 C 140 114.167969 146.667969 118.332031 153.332031 122.5 C 155 123.332031 157.5 122.5 160 122.5 C 160.832031 122.5 161.667969 120.832031 161.667969 120 C 167.5 106.667969 173.332031 92.5 179.167969 79.167969 C 179.167969 78.332031 180 77.5 180 76.667969 L 179.167969 76.667969 C 165 86.667969 149.167969 97.5 133.332031 109.167969 Z M 133.332031 109.167969 "/>
</g>
</svg>
